X:1
T:Phil the Fluter's Ball
N:from the playing of Sally Sloane
Z:Ian Hayden 2017
M:4/4
L:1/8
K:Gmaj
[|G2G2 g3f | edef gedB | G2G2 g3e | dedB A4 |
|G2G2 g3f | edef g2 ga | bgaf gfed | egfa g4|
|b2 bg a2 af | gage dBGd | b2bg a2af | gage d3 g |
|b2 bg a3 f | gage dBGB | g2G2 g2G2 | BdBG A2 BA|
|G2G2 g3f | edef gedB | G2G2 g3e | dedB A4 |
|G2G2 g3f | edef g2 ga | bgaf gfed | egfa g4|]
